X: 42814
T: Who Stole The Miner's Hat?
R: polka
M: 2/4
K: Amixolydian
|:A>B cd|ec d2|AB/c/ de|fg e2|
A>B cd|ec dA|BA GA|BA A2:|
|:a2 ge|fd e2|A>B cd|ed e/f/g|
a2 ge|fd ed|BA GB|A2 A2:|

